svg/color/dash.svg

<svg width="64" height="65" viewBox="0 0 64 65" fill="none" xmlns="http://www.w3.org/2000/svg">
<rect y="0.303711" width="64" height="64" rx="32" fill="#008CE7"/>
<rect x="0.5" y="0.803711" width="63" height="63" rx="31.5" stroke="#070B14" stroke-opacity="0.15"/>
<path d="M38.194 16.0937H23.642L22.438 22.8277L35.562 22.8477C42.024 22.8477 43.942 25.1937 43.88 29.0877C43.852 31.0837 42.982 34.4597 42.614 35.5477C41.62 38.4677 39.572 41.7917 31.896 41.7817L19.14 41.7737L17.936 48.5157H32.45C37.568 48.5157 39.748 47.9177 42.05 46.8557C47.158 44.4997 50.2 39.4537 51.422 32.8677C53.234 23.0677 50.974 16.0937 38.192 16.0937H38.194Z" fill="white"/>
<path d="M31.636 31.6817C32.11 29.7117 32.26 28.9217 32.26 28.9217H17.368C13.56 28.9217 13.016 31.4017 12.654 32.9017C12.18 34.8637 12.03 35.6637 12.03 35.6637H26.924C30.73 35.6637 31.274 33.1837 31.636 31.6817Z" fill="white"/>
</svg>

<svg xmlns="http://www.w3.org/2000/svg" width="64" height="65" fill="none" viewBox="0 0 64 65"><rect width="64" height="64" y=".304" fill="#008CE7" rx="32"/><rect width="63" height="63" x=".5" y=".804" stroke="#070B14" stroke-opacity=".15" rx="31.5"/><path fill="#fff" d="M38.194 16.094H23.642l-1.204 6.734 13.124.02c6.462 0 8.38 2.346 8.318 6.24-.028 1.996-.898 5.372-1.266 6.46-.994 2.92-3.042 6.244-10.718 6.234l-12.756-.008-1.204 6.742H32.45c5.118 0 7.298-.598 9.6-1.66 5.108-2.356 8.15-7.402 9.372-13.988 1.812-9.8-.448-16.774-13.23-16.774z"/><path fill="#fff" d="M31.636 31.682c.474-1.97.624-2.76.624-2.76H17.368c-3.808 0-4.352 2.48-4.714 3.98-.474 1.962-.624 2.762-.624 2.762h14.894c3.806 0 4.35-2.48 4.712-3.982"/></svg>
